X: 2
T: Wee Michael's March
Z: Bill Reeder
S: https://thesession.org/tunes/4301#setting17006
R: mazurka
M: 3/4
L: 1/8
K: Amix
A2d2e2|{e}f6 a2| g2 f2 eG3| d4 AG3| A6 f2|gf3 e4|!e2A2 d2e2|f6 a2|g2f2 eG3| d4 AG3| A6 f2|e3 d d4-|d2:||!A2 d2ef|g6 f2|ga3 f3 e|d2 dB3 A2|gf3 e4-|e2 A2 d2 ef|!g6 f2|ga3 f3e|d2 dA3 A2|f2e3 dd2-|d2:||
